icons/fill-new-food-fruit-pear.svg

<svg xmlns="http://www.w3.org/2000/svg" width="32px" height="32px" viewBox="0 0 32 32" version="1.1">
    <title>fill-new-food-fruit-pear</title>
    <g id="fill-new-food-fruit-pear" stroke-width="1" fill-rule="evenodd">
        <path d="M19.8320503,2.4452998 C20.1384028,2.90482849 20.0142289,3.52569784 19.5547002,3.83205029 C18.8382416,4.30968934 18.166065,5.16610078 17.6911926,6.1626638 C20.9899529,6.83815922 22.9255609,9.61726733 23.5,14.5 C25.8333333,15.8333333 27,18.1666667 27,21.5 C27,26.5 22,30 16,30 C10,30 5,26.5 5,21.5 C5,18.1666667 6.16666667,15.8333333 8.5,14.5 C9.14494015,9.01800875 11.5056649,6.18768469 15.5821744,6.0090278 C16.1984998,4.39796157 17.2461739,2.96736697 18.4452998,2.16794971 C18.9048285,1.86159725 19.5256978,1.98577112 19.8320503,2.4452998 Z" id="&#36335;&#24452;" fill-rule="nonzero" />
    </g>
</svg>

<svg xmlns="http://www.w3.org/2000/svg" viewBox="0 0 32 32"><path fill="currentColor" d="M19.832 2.445a1 1 0 0 1-.277 1.387c-.717.478-1.389 1.334-1.864 2.33 3.299.676 5.235 3.455 5.809 8.338 2.333 1.333 3.5 3.667 3.5 7 0 5-5 8.5-11 8.5S5 26.5 5 21.5c0-3.333 1.167-5.667 3.5-7 .645-5.482 3.006-8.312 7.082-8.491.616-1.611 1.664-3.042 2.863-3.841a1 1 0 0 1 1.387.277"/></svg>
